!!!!SEGMENT: pl-wn--mus-iii-104-136_zelenski-wladyslaw--na-fujarce.krn
!!!cenid: 18xx:3777
!!!COM: Żeleński, Władysław
!!!COM-rismid: pe41024455
!!!CDT:
!!!CNT:
!!!OTL: Na fujarce
!!!PDT:
!!!AGN:
!!!SMS-siglum: PL-Wn
!!!SMS-shelfmark: Mus.III.104.136
!!!SMS-shelfwork: W
!!!SMS-variant:
!!!SMS-altvar:
!!!NIFC-rismid:
!!!URL-scan: https://polona.pl/item/na-fujarce,MTMwNzEyNA/0/#info:metadata
!!!ONB-nifc:
!!!key: f#
**kern	**kern	**dynam	**kern	**text	**text	**dynam
*part2	*part2	*part2	*part1	*part1	*part1	*part1
*staff3	*staff2	*	*staff1	*staff1	*staff1	*
*	*	*	*	*v:1	*v:2	*
*I"Fortepian.	*I"Fortepian.	*	*I"Śpiew.	*	*	*
*Ipiano	*Ipiano	*	*Isoprn	*	*	*
*ICklav	*ICklav	*	*ICvox	*	*	*
*IGacmp	*IGacmp	*	*IGsolo	*	*	*
*clefF4	*clefG2	*	*clefG2	*	*	*
*k[f#c#g#]	*k[f#c#g#]	*	*k[f#c#g#]	*	*	*
*f#:	*f#:	*	*f#:	*	*	*
*M6/4	*M6/4	*	*M6/4	*	*	*
=1	=1	=1	=1	=1	=1	=1
!!LO:TX:B:a:t=Andante non troppo.
!	!LO:TX:i:a:t=sempre portamento.	!	!	!	!	!
!	!	!	!LO:N:vis=1.	!	!	!
(4C# 4FF#'/	(4c# 4A'/	p	1.r	.	.	.
4C# 4FF#'/	4f# 4A'/	.	.	.	.	.
4C# 4FF#'/	4e#X 4A'/	<	.	.	.	.
4C# 4FF#'/	4g# 4A'/	.	.	.	.	.
4C# 4FF#'/	4f# 4A'/	.	.	.	.	.
4C# 4FF#'/)	4en 4A'/)	[[	.	.	.	.
=2	=2	=2	=2	=2	=2	=2
*^	*^	*	*	*	*	*
!	!	!	!	!	!LO:N:vis=1.	!	!	!
4C# 4FF#/	4ryy	(8d'/L	4A\	.	1.r	.	.	.
.	.	8e'/J	.	.	.	.	.	.
4F# 4FF#/	4ryy	4A'/	4A\	.	.	.	.	.
8E/L	4FF#\	4B'/	4A\	.	.	.	.	.
8D/J	.	.	.	.	.	.	.	.
4C#/	4FF#\	4c#'/	8A\L	.	.	.	.	.
.	.	.	8G#\J	.	.	.	.	.
4D#X/	4FF#\	4c#'/	4B\	>	.	.	.	.
4E#X/	4FF#\	4c#'/)	4B\	]]	.	.	.	.
*v	*v	*	*	*	*	*	*	*
*	*v	*v	*	*	*	*	*
=3!|:	=3!|:	=3!|:	=3!|:	=3!|:	=3!|:	=3!|:
!	!	!	!	!	!	!LO:DY:a
4F# 4FF#/	(4c# 4A'/	pp	8f#/	A	Wy-	p
.	.	.	8a/	kto	-kar-	.
4C# 4FF#/	4f# 4A'/	.	[2cc#\	cie-	-mi-	.
4C# 4FF#/	4e#X 4A'/	.	.	.	.	.
4C# 4FF#/	4g# 4A'/	.	8cc#\]	.	.	.
.	.	.	8b#X\	-bie	-ła	.
4C# 4FF#/	4f# 4A'/	.	4dd\	ty	mnie	.
4C# 4FF#/	4en 4A'/)	.	4cc#\	wierz-	ta	.
!!LO:LB:g=original
=4	=4	=4	=4	=4	=4	=4
*^	*^	*	*	*	*	*
!	!	!	!	!	!	!	!	!LO:DY:a
4C#/	(4FF#'\	4d/	(4A'\	.	(8b#X\L	-bi-	zie-	<
.	.	.	.	.	8cc#\J)	.	.	.
4F#/	4FF#'\	4A/	4A'\	.	4f#/	-no	-mia	.
(8E/L	4FF#'\	4B/	4A'\	.	4g#/	wy-	jak	.
8D/J	.	.	.	.	.	.	.	.
4C#/)	4FF#'\)	4c#/	4A'\)	.	(8a/L	-cho-	ma-	[
.	.	.	.	.	8b#/J)	.	.	.
!	!	!	!	!	!	!	!	!LO:DY:a
4C#/	4FF#\	(8f#/L	4A\	<	[2cc#\	-wał	-tka	>
.	.	8g#/	.	.	.	.	.	.
4C#/	4FF#\	8a/	8f#\L	.	.	.	.	.
.	.	8b/J	8g#\J	.	.	.	.	.
*v	*v	*	*	*	*	*	*	*
=5	=5	=5	=5	=5	=5	=5	=5
4C# 4FF#/	8cc#/L	4a\	.	4cc#\]	.	.	]]
.	8aa/J	.	.	.	.	.	.
4C# 4FF#/	4gg#/)	4a\	[	4r	.	.	.
4C# 4FF#/	(8ff#/L	4a\	.	4r	.	.	.
.	8ee/J	.	.	.	.	.	.
!	!LO:TX:i:b:t=espres.	!	!	!	!	!	!
4C# 4FF#/	8dd/L	4a\	.	2.r	.	.	.
.	8cc#/J	.	.	.	.	.	.
4C# 4FF#/	4b/	8g#\L	.	.	.	.	.
.	.	8f#\	.	.	.	.	.
4C# 4FF#/	4dd/)	8e#X\	.	.	.	.	.
.	.	8g#\J	.	.	.	.	.
=6	=6	=6	=6	=6	=6	=6	=6
4C# 4FF#/	([2cc#/	4a\	>	8f#/	A	Pła-	.
.	.	.	.	8a/	kto	-ki-	.
4C# 4FF#/	.	4f#\	.	[2cc#\	two-	-wa-	.
4C# 4FF#/	16cc#/LL]	4e\	.	.	.	.	.
.	16b/	.	.	.	.	.	.
.	16a/	.	.	.	.	.	.
.	16g#/JJ	.	.	.	.	.	.
4C# 4FF#/	4f#/)	4d\	]	8cc#\]	.	.	.
.	.	.	.	8b#X\	-je	-ła	.
4C# 4FF#/	(4f#'/	4A\	.	4ee\	fu-	ze	.
4C# 4FF#/	4f#'/)	4B\	.	4dd\	-ja-	mną	.
!!LO:LB:g=original
=7	=7	=7	=7	=7	=7	=7	=7
!	!	!	!	!LO:TX:i:a:t=espres.	!	!	!
4C# 4FF#/	(8f#/L	4c#\	<	(8cc#\L	-recz-	brzo-	.
.	8g#/J	.	.	8b#X\J)	.	.	.
4C# 4FF#/	4d#X'/	4B#X\	.	4g#/	-ki	-za	.
4C# 4FF#/	4e#X'/)	4Bn\	[	4bn\	cza-	są-	.
4C# 4FF#/	([4f#/	4A\	.	(8a/L	-ro-	-siad-	>
.	.	.	.	8g#/J)	.	.	.
4C# 4FF#/	8f#/L]	4A\	.	[>2f#/	-wał?	-ka	.
!	!LO:TX:i:b:t=dolce.	!	!	!	!	!	!
.	8g#/	.	.	.	.	.	.
4C# 4FF#/	8a/	8f#\L	.	.	.	.	.
.	8b/J	8g#\J	.	.	.	.	.
=8	=8	=8	=8	=8	=8	=8	=8
4C# 4FF#/	8cc#/L	4a\	.	4f#/]	.	.	.
.	8ff#/J	.	.	.	.	.	.
4C# 4FF#/	4ee/)	4a\	.	4r	.	.	]
4C# 4FF#/	(8dd/L	4a\	.	4r	.	.	.
.	8a/J	.	<	.	.	.	.
4C# 4FF#/	8bL 8g#/	4ryy\	.	2.r	.	.	.
.	8ddJ 8f#/	.	.	.	.	.	.
4F# 4FF#/	4cc# 4e/	4ryy	.	.	.	.	.
4F# 4FF#/	4f#/	8d\L	.	.	.	.	.
.	.	8c#\J	[[	.	.	.	.
=9	=9	=9	=9	=9	=9	=9	=9
!	!	!	!	!	!	!	!LO:DY:a
!	!	!	!	!	!	!	!LO:DY:a
4F# 4BB\	4f#/)	4d\	p <	8g#/	Wy-	Czar-	p <
.	.	.	.	8a/	-cho-	-na	.
4F# 4BB\	(4f#/	4d\	.	4.b\	-wał	ro-	.
4F# 4BB\	8a/L	4d\	.	.	.	.	.
.	8g#/J	.	.	8cc#\	ci	-la	.
4F# 4BB\	4f#/)	4d\	.	8dd\	mnie	po-	.
.	.	.	.	8b\	mój	-da-	.
4F# 4BB\	(4f#/	4d\	.	[2ff#\	ro-	-wa-	[
4F# 4BB\	8a/L	4d\	.	.	.	.	.
.	8g#/J	.	[[	.	.	.	.
!!LO:PB:g=original
=10	=10	=10	=10	=10	=10	=10	=10
!	!	!	!LO:HP:b:t=poco cresc.	!	!	!	!
4F# 4BB\	4f#/	8d\L	<	8ff#\]	.	.	.
.	.	8c#\J)	.	8ee\	-dzic	-ła	.
4F# 4BB\	(4f#'/	4B\	.	4dd\	cie-	chleb	.
4Gn 4BB\	4e'/)	4B\	.	4cc#\	-mny	i	.
!	!	!	!	!	!	!	!LO:DY:a
4F# 4BB\	(8d/L	4B\	<	[2.b\	las	sól	>
.	8c#/J	.	.	.	.	.	.
4G 4BB\	4e/	4c#\	.	.	.	.	.
4E 4BB\	4gn/	4c#\	[	.	.	.	.
*	*v	*v	*	*	*	*	*
=11	=11	=11	=11	=11	=11	=11
4F# 4BB\	4f# 4d/)	.	4b\]	.	.	]
4F# 4BB\	(>4b 4d/	p <	4r	.	.	.
4F# 4BB\	4a#X 4c#/	.	4r	.	.	.
4F# 4BB\	8bL 8d/	.	2.r	.	.	.
.	8cc#J 8e/	[ >	.	.	.	.
4F# 4BB\	4.dd 4.f#/	.	.	.	.	.
4F# 4BB\	.	.	.	.	.	.
.	8cc# 8e/	]]	.	.	.	.
=12	=12	=12	=12	=12	=12	=12
*	*^	*	*	*	*	*
4F# 4BB\	4b/)	4d\	p	8b\	Kę-	Wy-	.
.	.	.	.	8cc#\	-dy	-ko-	.
4F# 4BB\	(4b/	4d\	.	[2ee\	sto-	-ły-	.
4F# 4BB\	8a/L	4d\	.	.	.	.	.
.	8g#X/J	.	.	.	.	.	.
4F# 4BB\	4f#/)	4d\	<	8ee\]	.	.	.
.	.	.	.	8dd\	-ję	-sał	.
4F# 4BB\	4f#/	4e\	.	4cc#\	w chło-	wiatr	.
4G#X 4BB\	4f#/	4d\	[[	4b\	-dnej	szu-	.
!!LO:LB:g=original
=13	=13	=13	=13	=13	=13	=13	=13
4A 4C#\	4f#/	4c#\	>	8a/	ro-	-mią-	.
.	.	.	.	8g#/	-sie	-cy	.
4G# 4C#\	4d#X/	4c#\	.	4cc#\	aż	z łąk	.
4B 4C#\	4e#X/	4c#\	]	(8g#/L	po	i	.
.	.	.	.	8a/J)	.	.	.
!	!	!	!	!	!	!	!LO:DY:a
4A 4F#\	([4f#/	4c#\	.	[2.f#/	pas.	pól.	>
4C# 4FF#/	8f#/L]	4A\	<	.	.	.	.
.	8g#/	.	.	.	.	.	.
4C# 4FF#/	8a/	8f#\L	.	.	.	.	.
.	8b/J	8g#\J	.	.	.	.	.
=14	=14	=14	=14	=14	=14	=14	=14
4C# 4FF#/	8cc#/L	4a\	.	4f#/]	.	.	]
.	8aa/J	.	.	.	.	.	.
4C# 4FF#/	4gg#/)	4a\	.	4r	.	.	.
4C# 4FF#/	(8ff#/L	4a\	[	4r	.	.	.
.	8ee/J	.	.	.	.	.	.
4C# 4FF#/	8dd/L	4a\	.	2.r	.	.	.
.	8cc#/J	.	.	.	.	.	.
4C# 4FF#/	4b/	8g#\L	>	.	.	.	.
.	.	8f#\	.	.	.	.	.
4C# 4FF#/	4dd/	8e#X\	.	.	.	.	.
.	.	8g#\J	.	.	.	.	.
=15	=15	=15	=15	=15	=15	=15	=15
!	!	!	!	!LO:N:vis=1.	!	!	!
4C# 4FF#/	2cc#/	8a\L	.	1.r	.	.	.
.	.	8g#\J	.	.	.	.	.
4C# 4FF#/	.	4f#\)	.	.	.	.	.
4C# 4FF#/	4e#X/	(4A'\	] pp	.	.	.	.
4C# 4FF#/	4g#/	4A'\	.	.	.	.	.
4C# 4FF#/	4f#/	4A'\	.	.	.	.	.
4C# 4FF#/	8en/L	4A'\)	.	.	.	.	.
.	8d/J	.	.	.	.	.	.
*	*v	*v	*	*	*	*	*
!!LO:LB:g=original
=16:|!	=16:|!	=16:|!	=16:|!	=16:|!	=16:|!	=16:|!
!	!	!	!	!	!	!LO:DY:a
(4F# 4FF#'/	(4c# 4A'/	pp	8f#/	La-	.	p
.	.	.	8a/	-tał	.	.
4C# 4FF#'/	4f# 4A'/	.	[2cc#\	ci	.	.
4C# 4FF#'/	4e#X 4A'/	.	.	.	.	.
4C# 4FF#'/	4g# 4A'/	.	8cc#\]	.	.	.
.	.	.	8b#X\	on	.	.
4C# 4FF#'/	4f# 4A'/	.	4dd\	mie-	.	.
4C# 4FF#'/)	4en 4A'/)	.	4cc#\	-sięcz-	.	.
=17	=17	=17	=17	=17	=17	=17
*^	*^	*	*	*	*	*
!	!	!	!	!	!	!	!	!LO:DY:a
4C#/	4FF#\	4d/	4A\	.	(8b#X\L	-ne-	.	<
.	.	.	.	.	8cc#\J)	.	.	.
4F#/	4FF#\	4A/	4A\	.	4f#/	-mi	.	.
8E/L	4FF#\	4B/	4A\	.	4g#/	noc-	.	[
8D/J	.	.	.	.	.	.	.	.
4C#/	4FF#\	(4c#/	4A\	<	(8a/L	-ka-	.	.
.	.	.	.	.	8b#/J)	.	.	.
!	!	!	!	!	!	!	!	!LO:DY:a
4C#/	4FF#\	8f#/L	4A\	.	[2cc#\	-mi,	.	>
.	.	8g#/	.	.	.	.	.	.
4C#/	4FF#\	8a/	8f#\L	.	.	.	.	.
.	.	8b/J	8g#\J	.	.	.	.	.
*v	*v	*	*	*	*	*	*	*
=18	=18	=18	=18	=18	=18	=18	=18
4C# 4FF#/	8cc#/L	4a\	.	4cc#\]	.	.	]
.	8aa/J	.	.	.	.	.	.
4C# 4FF#/	4gg#/)	4a\	[	4r	.	.	.
4C# 4FF#/	(8ff#/L	4a\	.	4r	.	.	.
.	8ee/J	.	.	.	.	.	.
!	!LO:TX:i:b:t=espres.	!	!	!	!	!	!
4C# 4FF#/	8dd/L	4a\	.	2.r	.	.	.
.	8cc#/J	.	.	.	.	.	.
4C# 4FF#/	4b/	8g#\L	.	.	.	.	.
.	.	8f#\	.	.	.	.	.
4C# 4FF#/	4dd/)	8e#X\	.	.	.	.	.
.	.	8g#\J	.	.	.	.	.
!!LO:LB:g=original
=19	=19	=19	=19	=19	=19	=19	=19
4C# 4FF#/	([2cc#/	4a\	>	8f#/	Nad	.	.
.	.	.	.	8a/	sen-	.	.
4C# 4FF#/	.	4f#\	.	[2cc#\	-ne-	.	.
4C# 4FF#/	16cc#/LL]	4e\	.	.	.	.	.
.	16b/	.	.	.	.	.	.
.	16a/	.	.	.	.	.	.
.	16g#/JJ	.	.	.	.	.	.
4C# 4FF#/	4f#/)	4d\	]	8cc#\]	.	.	.
.	.	.	.	8b#X\	-mi	.	.
4C# 4FF#/	(4f#'/	4A\	.	4ee\	wio-	.	.
4C# 4FF#/	4f#'/)	4B\	.	4dd\	-ski	.	.
=20	=20	=20	=20	=20	=20	=20	=20
4C# 4FF#/	(8f#/L	4c#\	<	(8cc#\L	na-	.	.
.	8g#/J	.	.	8b#X\J)	.	.	.
4C# 4FF#/	4d#X/	4cn\	.	4g#/	-szej	.	.
4C# 4FF#/	4e#X/)	4Bn\	[	4bn/	cha-	.	.
4C# 4FF#/	([4f#/	4A\	.	(8a/L	-ta-	.	.
.	.	.	.	8g#/J)	.	.	.
4C# 4FF#/	8f#/L]	4A\	.	[>2f#/	-mi...	.	.
!	!LO:TX:i:b:t=dolce.	!	!	!	!	!	!
.	8g#/	.	.	.	.	.	.
4C# 4FF#/	8a/	8f#\L	.	.	.	.	.
.	8b/J	8g#\J	.	.	.	.	.
=21	=21	=21	=21	=21	=21	=21	=21
4C# 4FF#/	8cc#/L	4a\	.	4f#/]	.	.	.
.	8ff#/J	.	.	.	.	.	.
4C# 4FF#/	4ee/)	4a\	.	4r	.	.	.
4C# 4FF#/	(8dd/L	4a\	<	4r	.	.	.
.	8a/J	.	.	.	.	.	.
4C# 4FF#/	8bL 8g#/	4ryy	.	2.r	.	.	.
.	8ddJ 8f#/	.	.	.	.	.	.
4F# 4FF#/	4cc# 4e/	4ryy	.	.	.	.	.
4F# 4FF#/	4f#/	8d\L	.	.	.	.	.
.	.	8c#\J	[[	.	.	.	.
!!LO:PB:g=original
=22	=22	=22	=22	=22	=22	=22	=22
!	!	!	!LO:HP:b:t=poco cresc.	!	!	!	!
4F# 4BB\	4f#/)	4d\	<	8g#/	W sre-	.	.
.	.	.	.	8a/	-brnej	.	.
4F# 4BB\	4f#/	4d\	.	4.b/	stru-	.	.
4F# 4BB\	4f#/	4d\	.	.	.	.	.
!	!	!	!	!	!	!	!LO:DY:a
.	.	.	.	8a/	-dze	.	<
4F# 4BB\	4f#/	(8d\L	.	8b\	ma-	.	.
.	.	8c#\J	.	8cc#\	-czał	.	.
4F# 4BB\	4f#/	4B\	.	4dd\	skrzy-	.	.
4F# 4BB\	4f#/	8c#\L	.	4b\	-dła	.	.
.	.	8e\J	.	.	.	.	.
*	*v	*v	*	*	*	*	*
=23	=23	=23	=23	=23	=23	=23
*^	*	*	*	*	*	*
4F#/	4BB\	4f# 4d/)	.	[2ff#\	ja-	.	[
4G#X/	4BB\	(>4f# 4d/	.	.	.	.	.
4A#X/	4BB\	4f# 4d/	<	8ff#\]	.	.	.
.	.	.	.	8dd\	-ko	.	.
!	!	!	!	!	!	!	!LO:DY:a
8B/L	4BB\	4f# 4d/	.	[2.b\	ptak.	.	>
8An/J	.	.	.	.	.	.	.
4Gn/	4BB\	4e 4c#/	.	.	.	.	.
4E/	4BB\	4gn 4c#/	[[	.	.	.	.
*v	*v	*	*	*	*	*	*
=24	=24	=24	=24	=24	=24	=24
4F# 4BB\	4f# 4e/)	p	4b\]	.	.	]]
4F# 4BB\	(>4b 4d/	.	4r	.	.	.
4F# 4BB\	4a#X 4c#/	.	4r	.	.	.
4F# 4BB\	8bL 8d/	.	2.r	.	.	.
.	8cc#J 8e/	.	.	.	.	.
4F# 4BB\	4.dd 4.f#/	.	.	.	.	.
4F# 4BB\	.	.	.	.	.	.
.	8cc# 8e/)	.	.	.	.	.
!!LO:LB:g=original
=25	=25	=25	=25	=25	=25	=25
*^	*	*	*	*	*	*
!	!	!	!	!LO:TX:i:a:t=espres.	!	!	!
4F#/	4BB\	4b 4d/	.	8b\	I	.	.
.	.	.	.	8cc#\	roz-	.	.
4F#/	4BB\	4f# 4d/	.	4.dd\	-tu-	.	.
8G#/L	4BB\	4f# 4e/	.	.	.	.	.
8A#X/J	.	.	<	8cc#\	-lał	.	.
4B/	4BB\	4f# 4d/	.	8b\	dzi-	.	.
.	.	.	.	8cc#\	-kie	.	.
4F#/	4BB\	4f# 4e/	.	4ee\	gło-	.	.
4G#/	4BB\	4f# 4d/	[[	4dd\	-gi,	.	.
=26	=26	=26	=26	=26	=26	=26	=26
*	*	*^	*	*	*	*	*
4A/	8F#\L	4f#/	4c#\	.	(8a/L	pol-	.	.
.	8E\J	.	.	.	8b/J	.	.	.
4A/	4D#X\	4f#/	4c#\	.	4cc#\	.	.	.
4G#/	4GG#\	4f#/	4B#X\	p	8b#X\)	.	.	.
.	.	.	.	.	8g#/	-ny	.	.
!	!	!	!LO:TX:i:b:t=dolce.	!	!	!	!	!LO:DY:a
4G#/	4C#\	(8e/L	4c#\	.	[2.cc#\	mak.	.	>
.	.	8f#/J	.	.	.	.	.	.
4G#/	4C#\	4g#/	4e\	.	.	.	.	.
4G#/	4C#\	8a/L	8f#\L	.	.	.	.	.
.	.	8b/J	8d#X\J	.	.	.	.	.
*v	*v	*	*	*	*	*	*	*
=27	=27	=27	=27	=27	=27	=27	=27
4G# 4C#\	8cc#/L	4e\	<	4cc#\]	.	.	]
.	8ee/J	.	.	.	.	.	.
4G# 4C#\	4dd#X/)	4e\	.	4r	.	.	.
4G# 4C#\	(8cc#/L	4e\	.	4r	.	.	.
.	8b/J	.	.	.	.	.	.
4G# 4C#\	8a/L	4e\	.	2.r	.	.	.
.	8g#/J	.	.	.	.	.	.
4G# 4C#\	4f#/	8d#X\L	.	.	.	.	.
.	.	8c#\	.	.	.	.	.
4G# 4C#\	4a/	8B#X\	.	.	.	.	.
.	.	8d#\J	[	.	.	.	.
!!LO:LB:g=original
=28	=28	=28	=28	=28	=28	=28	=28
*	*	*^	*	*	*	*	*
!	!	!	!	!	!LO:N:vis=1.	!	!	!
4G# 4C#\	4g# 4e/)	4ryy	4ryy	<	1.r	.	.	.
4G# 4C#\	(>4g# 4e/	4ryy	4ryy	.	.	.	.	.
4C#/	8g#L 8e/	4ryy	4ryy	.	.	.	.	.
.	8aJ 8c#/	.	.	[[	.	.	.	.
!	!LO:TX:i:b:t=espres.	!	!	!	!	!	!	!
4C#/	8bL 8dn/	4f#\	4ryy	.	.	.	.	.
.	8aJ 8c#/	.	.	.	.	.	.	.
4C#/	4.g#/	4f#\	2B\	>	.	.	.	.
4C#/	.	4e#X\	.	.	.	.	.	.
.	8a/)	.	.	]]	.	.	.	.
*	*	*v	*v	*	*	*	*	*
=29	=29	=29	=29	=29	=29	=29	=29
!	!	!	!	!	!	!	!LO:DY:a
4C# 4FF#/	8f#/L	4A\	pp	8f#/	Z sta-	.	p
.	8c#/J	.	.	8a/	-rych	.	.
4C# 4FF#/	4f#/	4A\	.	[2cc#\	mo-	.	.
4C# 4FF#/	4e#X/	4A\	.	.	.	.	.
4C# 4FF#/	4g#/	4A\	.	8cc#\]	.	.	.
.	.	.	.	8b#X\	-gił	.	.
4C# 4FF#/	4f#/	4A\	.	4dd\	zbie-	.	.
4C# 4FF#/	4en/	4A\	.	4cc#\	-rał	.	.
=30	=30	=30	=30	=30	=30	=30	=30
*^	*	*	*	*	*	*	*
!	!	!	!	!	!	!	!	!LO:DY:a
4C#/	4FF#\	4d/	4A\	.	(8b#X\L	skar-	.	<
.	.	.	.	.	8cc#\J)	.	.	.
4F#/	4FF#\	4A/	4A\	.	4f#/	-gi	.	.
!	!	!	!	!	!	!	!	!LO:DY:a
(8E/L	4FF#\	4B/	4A\	.	4g#/	i	.	[ >
8D/J	.	.	.	.	.	.	.	.
4C#/)	4FF#\	(4c#/	4A\	<	(8a/L	ża-	.	.
.	.	.	.	.	8b#/J)	.	.	.
4C#/	4FF#\	8f#/L	4A\	.	[2cc#\	-le	.	]]
.	.	8g#/	.	.	.	.	.	.
4C#/	4FF#\	8a/	8f#\L	.	.	.	.	.
.	.	8b/J	8g#\J	[[	.	.	.	.
*v	*v	*	*	*	*	*	*	*
!!LO:LB:g=original
=31	=31	=31	=31	=31	=31	=31	=31
!	!	!	!LO:HP:b:t=cresc.	!	!	!	!
4C# 4FF#/	8cc#/L	4a\	<	4cc#\]	.	.	.
.	8aa/J	.	.	.	.	.	.
4C# 4FF#/	4gg#/)	4a\	.	4r	.	.	.
4C# 4FF#/	(8ff#/L	4a\	.	4r	.	.	.
.	8ee/J	.	.	.	.	.	.
!	!LO:TX:i:b:t=espres.	!	!	!	!	!	!
4C# 4FF#/	8dd/L	4a\	.	2.r	.	.	.
.	8cc#/J	.	.	.	.	.	.
4C# 4FF#/	4b/	8g#\L	.	.	.	.	.
.	.	8f#\	.	.	.	.	.
4C# 4FF#/	4dd/)	8e#X\	.	.	.	.	.
.	.	8g#\J	.	.	.	.	.
=32	=32	=32	=32	=32	=32	=32	=32
4C# 4FF#/	([2cc#/	4a\	>	8f#/	I	.	.
.	.	.	.	8a/	o-	.	.
4C# 4FF#/	.	4f#\	.	[2cc#\	-trzą-	.	.
4C# 4FF#/	16cc#/LL]	4e\	.	.	.	.	.
.	16b/	.	.	.	.	.	.
.	16a/	.	.	.	.	.	.
.	16g#/JJ	.	]]	.	.	.	.
!	!	!	!	!	!	!	!LO:DY:a
4C# 4FF#/	4f#/)	4d\	.	8cc#\]	.	.	<
.	.	.	.	8b#X\	-sał	.	.
4C# 4FF#/	(4f#'/	4A\	pp	4ee\	po	.	.
4C# 4FF#/	4f#'/)	4B\	.	4dd\	ka-	.	[[
=33	=33	=33	=33	=33	=33	=33	=33
!	!	!	!	!LO:TX:i:a:t=espres.	!	!	!
4C# 4FF#/	(8f#/L	4c#\	.	(8cc#\L	-li-	.	.
.	8g#/J	.	.	8b#X\J)	.	.	.
4C# 4FF#/	4d#X/	4B#X\	.	4g#/	-nach	.	.
4C# 4FF#/	4e#X/)	4Bn\	.	4bn\	ko-	.	.
4C# 4FF#/	([4f#/	4A\	.	(8a/L	-ra-	.	.
.	.	.	.	8g#/J)	.	.	.
4C# 4FF#/	8f#/L]	4A\	.	[>2f#/	-le...	.	.
!	!LO:TX:i:b:t=dolce.	!	!	!	!	!	!
.	8g#/	.	.	.	.	.	.
4C# 4FF#/	8a/	8f#\L	.	.	.	.	.
.	8b/J	8g#\J	.	.	.	.	.
!!LO:PB:g=original
=34	=34	=34	=34	=34	=34	=34	=34
4C# 4FF#/	8cc#/L	4a\	.	4f#/]	.	.	.
.	8ff#/J	.	.	.	.	.	.
4C# 4FF#/	4ee/)	4a\	.	4r	.	.	.
4C# 4FF#/	(8dd/L	4a\	.	4r	.	.	.
.	8a/J	.	.	.	.	.	.
4C# 4FF#/	8b/L	8g#\L	<	2.r	.	.	.
.	8dd/J	8f#\J	.	.	.	.	.
4F# 4FF#/	4cc#/	4e\	.	.	.	.	.
4F# 4FF#/	4f#/	8d\L	.	.	.	.	.
.	.	8c#\J	[[	.	.	.	.
=35	=35	=35	=35	=35	=35	=35	=35
!	!	!	!	!	!	!	!LO:DY:a
4F# 4BB\	4f#/)	4d\	p	8g#/	I	.	p
.	.	.	.	8a/	u-	.	.
4F# 4BB\	(4f#/	4d\	.	4.b\	-de-	.	.
4F# 4BB\	8a/L	4d\	.	.	.	.	.
!	!	!	!	!	!	!	!LO:DY:a
.	8g#/J	.	.	8cc#\	-rzał	.	<
4F# 4BB\	4f#/)	4d\	<	8dd\	grzmią-	.	.
.	.	.	.	8b\	-cą	.	.
4F# 4BB\	(4f#/	4d\	.	[2ff#\	pier-	.	.
4F# 4BB\	8a/L	4d\	.	.	.	.	.
.	8g#/J	.	[[	.	.	.	[[
=36	=36	=36	=36	=36	=36	=36	=36
!	!	!	!LO:HP:b:t=poco cresc.	!	!	!	!
4F# 4BB\	4f#/)	8d\L	<	8ff#\]	.	.	.
.	.	8c#\J	.	8ee\	-sią	.	.
4F# 4BB\	(4f#/	4B\	.	4dd\	w czar-	.	.
4Gn 4BB\	4e/	4B\	.	4cc#\	-ny	.	.
!	!	!	!	!	!	!	!LO:DY:a
4F# 4BB\	8d/L	4B\	.	[2.b\	bór	.	>]
.	8c#/J	.	.	.	.	.	.
4G 4BB\	4e/	4c#\	.	.	.	.	.
4E 4BB\	4gn/	4c#\	.	.	.	.	.
*	*v	*v	*	*	*	*	*
!!LO:LB:g=original
=37	=37	=37	=37	=37	=37	=37
4F# 4BB\	4f# 4e/)	p <	4b\]	.	.	.
4F# 4BB\	(>4b 4d/	.	4r	.	.	.
4F# 4BB\	4a#X 4c#/	.	4r	.	.	.
4F# 4BB\	8bL 8d/	.	2.r	.	.	.
.	8cc#J 8e/	.	.	.	.	.
4F# 4BB\	4.dd 4.f#/	[ >	.	.	.	.
4F# 4BB\	.	.	.	.	.	.
.	8cc# 8e/)	]]	.	.	.	.
=38	=38	=38	=38	=38	=38	=38
*	*^	*	*	*	*	*
!	!	!	!	!LO:TX:i:a:t=espres.	!	!	!LO:DY:a
4F# 4BB\	4b/	4d\	p	8b\	Aż	.	<
.	.	.	.	8cc#\	się	.	.
4F# 4BB\	(4b/	4d\	.	[2ee\	o-	.	[
4F# 4BB\	8a/L	4d\	.	.	.	.	.
.	8g#/J	.	.	.	.	.	.
4F# 4BB\	4f#/)	4d\	.	8ee\]	.	.	.
.	.	.	.	8dd\	-zwał	.	.
!	!	!	!	!	!	!	!LO:HP:a:t=cresc.
4F# 4BB\	4f#/	4e\	.	4cc#\	si-	.	<
4G# 4BB\	4f#/	4d\	.	4b\	-wych	.	.
=39	=39	=39	=39	=39	=39	=39	=39
*^	*	*	*	*	*	*	*
4A/	8F#\L	4f#/	4c#\	<	8a/	dę-	.	.
.	8E\J	.	.	.	8b\	-bów	.	.
4A/	4D#X\	4f#/	4c#\	[[	4cc#\	gło-	.	.
4E/	4E\	8f#/L	4dn\	.	(8f#/L	-śny	.	.
.	.	8g#/J	.	.	8g#/J)	.	.	.
!	!	!	!	!	!	!	!	!LO:DY:a
4E 4AA/	4ryy	[2.a/	4d\	f	[>2.a/	chór!	.	>]
4E 4AA/	4ryy	.	8c#\L	.	.	.	.	.
.	.	.	8e\	.	.	.	.	.
4E 4AA/	4ryy	.	8f#\	.	.	.	.	.
.	.	.	8c#\J	.	.	.	.	.
*v	*v	*	*	*	*	*	*	*
!!LO:LB:g=original
=40	=40	=40	=40	=40	=40	=40	=40
4E 4AA/	4a/]	8e\L	<	4a/]	.	.	.
.	.	8A\	.	.	.	.	.
4E 4AA/	4a/	8c#\	.	4r	.	.	.
.	.	8e\	.	.	.	.	.
4E 4AA/	[4a/	8f#\	.	4r	.	.	.
.	.	8c#\J	[[	.	.	.	.
4E 4AA/	8a/L]	8e\L	.	2.r	.	.	.
.	8b/J	8d\J	.	.	.	.	.
4E 4AA/	4cc#;/	4c#\	f	.	.	.	.
4C# 4GG#/	(8d#X/L	4B\	p >	.	.	.	.
.	8e#X/J	.	]]	.	.	.	.
=41	=41	=41	=41	=41	=41	=41	=41
!	!	!	!	!	!	!	!LO:DY:a
4C# 4FF#/	8f#/L	4A\	.	(8f#/L	Tę-	.	pp
.	8c#/J)	.	.	8a/J)	.	.	.
4C# 4FF#/	(4f#'/	4A\	pp	[2cc#\	.	.	.
4C# 4FF#/	4e#X'/	4A\	.	.	.	.	.
4C# 4FF#/	4g#'/	4A\	.	8cc#\]	.	.	.
.	.	.	.	8b#X\	-skność	.	.
4C# 4FF#/	4f#'/	4A\	.	4dd\	smu-	.	.
4C# 4FF#/	4en'/)	4A\	.	4cc#\	-tek	.	.
!!LO:LB:g=original
=42	=42	=42	=42	=42	=42	=42	=42
*^	*	*	*	*	*	*	*
!	!	!	!	!	!	!	!	!LO:DY:a
4C#/	4FF#\	4d/	4A\	.	(8b#X\L	łzy	.	<
.	.	.	.	.	8cc#\J	.	.	.
4F#/	4FF#\	4A/	4A\	.	4f#/)	.	.	[
8E/L	4FF#\	4B/	4A\	.	4g#/	sie-	.	.
8D/J	.	.	.	.	.	.	.	.
4C#/	4FF#\	(4c#/	4A\	.	(8a/L	-ro-	.	.
.	.	.	.	.	8b#/J)	.	.	.
!	!	!	!	!	!	!	!	!LO:DY:a
4C#/	4FF#\	8f#/L	4A\	<	[2cc#\	-ce	.	>
.	.	8g#/	.	.	.	.	.	.
4C#/	4FF#\	8a/	8f#\L	.	.	.	.	.
.	.	8b/J	8g#\J	[[	.	.	.	.
*v	*v	*	*	*	*	*	*	*
=43	=43	=43	=43	=43	=43	=43	=43
4C# 4FF#/	8cc#/L	4a\	.	4cc#\]	.	.	]]
.	8aa/J	.	.	.	.	.	.
4C# 4FF#/	4gg#/)	4a\	.	4r	.	.	.
4C# 4FF#/	(8ff#/L	4a\	.	4r	.	.	.
.	8ee/J	.	.	.	.	.	.
!	!LO:TX:i:b:t=espres.	!	!	!	!	!	!
4C# 4FF#/	8dd/L	4a\	.	2.r	.	.	.
.	8cc#/J	.	.	.	.	.	.
4C# 4FF#/	4b/	8g#\L	.	.	.	.	.
.	.	8f#\	.	.	.	.	.
4C# 4FF#/	4dd/)	8e#X\	.	.	.	.	.
.	.	8g#\J	.	.	.	.	.
!!LO:PB:g=original
=44	=44	=44	=44	=44	=44	=44	=44
4C# 4FF#/	([2cc#/	4a\	>	(8f#/L	Jak	.	.
.	.	.	.	8a/J)	.	.	.
4C# 4FF#/	.	4f#\	.	4.cc#\	bia-	.	.
4C# 4FF#/	16cc#/LL]	4e\	.	.	.	.	.
.	16b/	.	.	.	.	.	.
.	16a/	.	.	8b#X\	-ły	.	.
.	16g#/JJ	.	.	.	.	.	.
4C# 4FF#/	4f#/)	4d\	]	8cc#\	tu-	.	.
.	.	.	.	8b#\	-man	.	.
4C# 4FF#/	(4f#'/	4A\	.	4ee\	z łą-	.	.
4C# 4FF#/	4f#'/)	4B\	.	4dd\	-ki	.	.
=45	=45	=45	=45	=45	=45	=45	=45
!	!	!	!	!LO:TX:i:a:t=dolce.	!	!	!
4C# 4FF#/	(8f#/L	4c#\	.	8cc#\	w śla-	.	.
.	8g#/J	.	.	8b#X\	-dy	.	.
4C# 4FF#/	4d#X/	4B#X\	.	4g#/	za-	.	.
4C# 4FF#/	4e#X/)	4Bn\	.	8g#/	-nim	.	.
.	.	.	.	8bn\	le-	.	.
4C# 4FF#/	([4f#/	4A\	.	(8a/L	-cia-	.	.
.	.	.	.	8g#/J)	.	.	.
!	!LO:TX:i:b:t=dolce.	!	!	!	!	!	!
4C# 4FF#/	8f#/L]	4A\	.	[>2f#/	-ły....	.	.
.	8g#/	.	.	.	.	.	.
4C# 4FF#/	8a/	8f#\L	.	.	.	.	.
.	8b/J	8g#\J	.	.	.	.	.
=46	=46	=46	=46	=46	=46	=46	=46
4C# 4FF#/	8cc#/L	4a\	.	4f#/]	.	.	.
.	8ff#/J	.	.	.	.	.	.
4C# 4FF#/	4ee/)	4a\	.	4r	.	.	.
4C# 4FF#/	(8dd/L	4a\	<	4r	.	.	.
.	8a/J	.	.	.	.	.	.
4C# 4FF#/	8b/L	8g#\L	.	2.r	.	.	.
.	8dd/J	8f#\J	.	.	.	.	.
4F# 4FF#/	4cc#/	4e\	.	.	.	.	.
4F# 4FF#/	4f#/	8d\L	.	.	.	.	.
.	.	8c#\J	[[	.	.	.	.
!!LO:LB:g=original
=47	=47	=47	=47	=47	=47	=47	=47
!	!	!	!	!	!	!	!LO:DY:a
4F# 4BB\	4f#/)	4d\	p	8g#/	Wiatr	.	p
.	.	.	.	8a/	ga-	.	.
4F# 4BB\	(4f#/	4d\	.	4.b\	-łąz-	.	.
4F# 4BB\	8a/L	4d\	.	.	.	.	.
!	!	!	!	!	!	!	!LO:DY:a
.	8g#/J	.	.	8cc#\	-ki	.	<
4F# 4BB\	4f#/)	4d\	.	8dd\	mo-	.	.
.	.	.	.	8cc#\	-je	.	.
4F# 4BB\	(4f#/	4d\	<	4b\	gib-	.	.
4F# 4BB\	8a/L	4d\	.	8cc#\	-kie	.	.
.	8g#/J	.	.	8dd\	ca-	.	[[
*	*v	*v	*	*	*	*	*
=48	=48	=48	=48	=48	=48	=48
*^	*	*	*	*	*	*
!	!	!	!	!	!	!	!LO:DY:a
!	!	!	!LO:HP:b:t=poco cresc.	!	!	!	!
4F#/	4BB\	4f# 4d/)	[ <	[2ff#\	-ło-	.	>
4G#/	4BB\	(>4f# 4d'/	.	.	.	.	.
4A#X/	4BB\	4f# 4d'/	.	8ff#\L]	.	.	.
.	.	.	.	8dd\J	.	.	.
8B/L	4BB\	4f# 4d'/	.	4b\	-wał	.	]
8An/J	.	.	.	.	.	.	.
4Gn/	4BB\	4e 4c#'/	.	4r	.	.	.
4E/	4BB\	4gn 4c#'/)	.	4r	.	.	.
*v	*v	*	*	*	*	*	*
=49	=49	=49	=49	=49	=49	=49
!	!	!	!LO:N:vis=1.	!	!	!
4F# 4BB\	4f# 4e/	<	1.r	.	.	.
4F# 4BB\	(>4b 4d/	.	.	.	.	.
4F# 4BB\	4a#X 4c#/	.	.	.	.	.
4F# 4BB\	8bL 8d/	.	.	.	.	.
.	8cc#J 8e/	[ >	.	.	.	.
4F# 4BB\	4.dd 4.f#/	.	.	.	.	.
4F# 4BB\	.	.	.	.	.	.
.	8cc# 8e/)	]]	.	.	.	.
!!LO:LB:g=original
=50	=50	=50	=50	=50	=50	=50
*	*^	*	*	*	*	*
!	!	!	!	!LO:TX:i:a:t=espres.	!	!	!LO:DY:a
4F# 4BB\	4b/	4d\	p	8b\	Na	.	<
.	.	.	.	8cc#\	fu-	.	.
4F# 4BB\	(4b/	4d\	.	[2ee\	-jar-	.	[
4F# 4BB\	8a/L	4d\	<	.	.	.	.
.	8g#/J	.	.	.	.	.	.
4F# 4BB\	4f#/)	4d\	.	8ee\]	.	.	.
!	!	!	!	!	!	!	!LO:HP:a:t=cresc.
.	.	.	.	8dd\	-ki	.	<
4F# 4BB\	(4f#'/	4e\	.	4cc#\	je	.	.
4G# 4BB\	4f#'/)	4d\	[	4b\	u-	.	.
*	*v	*v	*	*	*	*	*
=51	=51	=51	=51	=51	=51	=51
!	!	!LO:HP:b:t=cresc	!	!	!	!
(4A 4C#'\	(>4f# 4c#'/	<	(8a/L	-rze-	.	.
.	.	.	8g#/J	.	.	.
4F# 4C#'\	4d#X 4c#'/	.	[2cc#\	.	.	.
4G# 4C#'\	4e#X 4c#'/	.	.	.	.	.
4A 4C#'\	4f# 4c#'/	.	4cc#\])	.	.	.
4G# 4C#'\	4g# 4B#X'/	.	4b#X\	-kał,	.	.
!	!	!	!	!	!	!LO:DY:a
4F# 4C#'\)	4d# 4B#'/)	.	4g#/	cza-	.	p
=52	=52	=52	=52	=52	=52	=52
*	*^	*	*	*	*	*
4G# 4C#\	(4f#'/	4Bn\	<	[2b\	-ro-	.	.
4G# 4C#\	4d#X'/	4B\	.	.	.	.	.
!	!	!	!	!LO:TUP:a:problem:klamra łukowa	!	!	!
4G# 4C#\	4e'/)	4B\	[[	12b\L]	.	.	.
.	.	.	.	12a\	.	.	.
.	.	.	.	12g#\J	.	.	.
4F# 4FF#/	([4f#/	4A\	p	[2.f#/	-wał....	.	.
4C# 4FF#/	8f#/L]	4A\	<	.	.	.	.
.	8g#/	.	.	.	.	.	.
4C# 4FF#/	8a/	8f#\L	.	.	.	.	.
.	8b/J	8g#\J	[[	.	.	.	.
!!LO:LB:g=original
=53	=53	=53	=53	=53	=53	=53	=53
4C# 4FF#/	8cc#/L	4a\	.	4f#/]	.	.	.
.	8aa/J	.	.	.	.	.	.
4C# 4FF#/	4gg#/)	4a\	.	4r	.	.	.
4C# 4FF#/	(8ff#/L	4a\	.	4r	.	.	.
.	8ee/J	.	.	.	.	.	.
4C# 4FF#/	8dd/L	4a\	.	2.r	.	.	.
.	8cc#/J	.	.	.	.	.	.
!	!	!	!LO:HP:b:t=cresc.	!	!	!	!
4C# 4FF#/	4b/	8g#\L	<	.	.	.	.
.	.	8f#\	.	.	.	.	.
4C# 4FF#/	4dd/)	8e#X\	.	.	.	.	.
.	.	8g#\J	.	.	.	.	.
=54	=54	=54	=54	=54	=54	=54	=54
!	!	!	!	!LO:N:vis=1.	!	!	!
4C# 4FF#/	([2cc#/	8a\L	.	1.r	.	.	.
.	.	8g#\	.	.	.	.	.
4C# 4FF#/	.	8f#\	.	.	.	.	.
.	.	8en\J	.	.	.	.	.
4C# 4FF#/	16cc#/LL]	[4d\	.	.	.	.	.
.	16b/	.	.	.	.	.	.
.	16a/	.	.	.	.	.	.
.	16g#/JJ	.	.	.	.	.	.
4C# 4FF#/	4f#/)	8d\L]	>	.	.	.	.
.	.	8e\J	.	.	.	.	.
4C# 4FF#/	([4f#/	4A\	.	.	.	.	.
4C# 4FF#/	8f#/L]	4B\	.	.	.	.	.
.	8a/J	.	]]	.	.	.	.
=55	=55	=55	=55	=55	=55	=55	=55
!	!	!	!LO:HP:b:t=dimin.	!LO:N:vis=1.	!	!	!
(4D 4FF#'/	8g#/L	4B\	>	1.r	.	.	.
.	8c#/J	.	.	.	.	.	.
4C# 4FF#'/	[2f#/)	4A\	.	.	.	.	.
4D 4FF#'/	.	8G#\L	.	.	.	.	.
.	.	8B\J	.	.	.	.	.
4C# 4FF#'/	4f#/]	4A\	pp	.	.	.	.
4FFF#'/)	4r	4ryy	.	.	.	.	.
4r	4r	4ryy	.	.	.	.	.
*	*v	*v	*	*	*	*	*
==	==	==	==	==	==	==
*-	*-	*-	*-	*-	*-	*-
!!!system-decoration: s1{(s2,s3)}
!!!ENC: Berenika Jozajtis
!!!END: 2022-03-11
!!!AIN: 1 piano 1 soprn
!!!ENC: Kamil Watkowski
!!!END: 2022-03-15
!!!RDF**kern: > = above
!!!RDF**kern: < = below
